svg/emoji_u1f6a5.svg

<svg width="128" height="128" viewBox="0 0 128 128" fill="none" xmlns="http://www.w3.org/2000/svg">
<path d="M4 83.0499V44.9499C4 39.6899 8.27 35.4199 13.53 35.4199H114.47C119.73 35.4199 124 39.6899 124 44.9499V83.0599C124 88.3199 119.73 92.5899 114.47 92.5899H13.53C8.27 92.5799 4 88.3199 4 83.0499Z" fill="#424242" style="fill:#424242;fill:color(display-p3 0.2588 0.2588 0.2588);fill-opacity:1;"/>
<path d="M101.11 78.6701C108.516 78.6701 114.52 72.6662 114.52 65.2601C114.52 57.854 108.516 51.8501 101.11 51.8501C93.7038 51.8501 87.7 57.854 87.7 65.2601C87.7 72.6662 93.7038 78.6701 101.11 78.6701Z" fill="#4CAF50" style="fill:#4CAF50;fill:color(display-p3 0.2980 0.6863 0.3137);fill-opacity:1;"/>
<path d="M91.75 66.4398C90.61 66.0798 90.3 62.0798 92.97 58.8698C96.95 54.0798 102.68 54.1998 103.29 56.7498C104.14 60.3198 99.62 58.9098 96.18 61.7898C94.04 63.5898 93.56 66.9998 91.75 66.4398Z" fill="#6FD86F" style="fill:#6FD86F;fill:color(display-p3 0.4353 0.8471 0.4353);fill-opacity:1;"/>
<path d="M64.0001 78.6701C71.4062 78.6701 77.4101 72.6662 77.4101 65.2601C77.4101 57.854 71.4062 51.8501 64.0001 51.8501C56.5939 51.8501 50.5901 57.854 50.5901 65.2601C50.5901 72.6662 56.5939 78.6701 64.0001 78.6701Z" fill="#FFCA28" style="fill:#FFCA28;fill:color(display-p3 1.0000 0.7922 0.1569);fill-opacity:1;"/>
<path d="M54.6399 66.45C53.4999 66.09 53.1899 62.09 55.8599 58.88C59.8399 54.09 65.5699 54.21 66.1799 56.76C67.0299 60.33 62.5099 58.92 59.0699 61.8C56.9199 63.6 56.4499 67.01 54.6399 66.45Z" fill="#FFF59D" style="fill:#FFF59D;fill:color(display-p3 1.0000 0.9608 0.6157);fill-opacity:1;"/>
<path d="M27.2899 78.6701C34.696 78.6701 40.6999 72.6662 40.6999 65.2601C40.6999 57.854 34.696 51.8501 27.2899 51.8501C19.8837 51.8501 13.8799 57.854 13.8799 65.2601C13.8799 72.6662 19.8837 78.6701 27.2899 78.6701Z" fill="#F44336" style="fill:#F44336;fill:color(display-p3 0.9569 0.2627 0.2118);fill-opacity:1;"/>
<path d="M17.9299 66.45C16.7899 66.09 16.4799 62.09 19.1499 58.88C23.1299 54.09 28.8599 54.21 29.4699 56.76C30.3199 60.33 25.7999 58.92 22.3599 61.8C20.2099 63.6 19.7399 67.01 17.9299 66.45Z" fill="#FF8155" style="fill:#FF8155;fill:color(display-p3 1.0000 0.5059 0.3333);fill-opacity:1;"/>
<path d="M12.7701 58.77C12.3001 59.69 10.8801 59.65 11.0101 58.25C11.3301 54.84 13.2701 52.16 14.8601 50.52C18.0201 47.2 22.6601 45.31 27.2901 45.32C31.9201 45.3 36.5601 47.2 39.7301 50.51C41.3201 52.15 43.5801 55.81 43.5901 58.36C43.5901 59.47 42.3301 59.77 41.8701 58.87C40.7201 56.63 37.1601 49.32 27.3001 49.32C17.4401 49.32 13.9101 56.55 12.7701 58.77Z" fill="#757575" style="fill:#757575;fill:color(display-p3 0.4588 0.4588 0.4588);fill-opacity:1;"/>
<path d="M49.48 58.77C49.01 59.69 47.59 59.65 47.72 58.25C48.04 54.84 49.98 52.16 51.57 50.52C54.73 47.2 59.37 45.31 64 45.32C68.63 45.3 73.27 47.2 76.44 50.51C78.03 52.15 80.29 55.81 80.3 58.36C80.3 59.47 79.04 59.77 78.58 58.87C77.43 56.63 73.87 49.32 64.01 49.32C54.15 49.32 50.62 56.55 49.48 58.77Z" fill="#757575" style="fill:#757575;fill:color(display-p3 0.4588 0.4588 0.4588);fill-opacity:1;"/>
<path d="M86.18 58.77C85.71 59.69 84.29 59.65 84.42 58.25C84.74 54.84 86.68 52.16 88.27 50.52C91.43 47.2 96.07 45.31 100.7 45.32C105.33 45.3 109.97 47.2 113.14 50.51C114.73 52.15 116.99 55.81 117 58.36C117 59.47 115.74 59.77 115.28 58.87C114.13 56.63 110.57 49.32 100.71 49.32C90.85 49.32 87.33 56.55 86.18 58.77Z" fill="#757575" style="fill:#757575;fill:color(display-p3 0.4588 0.4588 0.4588);fill-opacity:1;"/>
</svg>

<?xml version="1.0" encoding="utf-8"?>
<!-- Generator: Adobe Illustrator 25.2.3, SVG Export Plug-In . SVG Version: 6.00 Build 0)  -->
<svg version="1.1" id="Layer_1" xmlns="http://www.w3.org/2000/svg" xmlns:xlink="http://www.w3.org/1999/xlink" x="0px" y="0px"
	 viewBox="0 0 128 128" style="enable-background:new 0 0 128 128;" xml:space="preserve">
<g>
	<path style="fill:#424242;" d="M4,83.05V44.95c0-5.26,4.27-9.53,9.53-9.53h100.94c5.26,0,9.53,4.27,9.53,9.53v38.11
		c0,5.26-4.27,9.53-9.53,9.53H13.53C8.27,92.58,4,88.32,4,83.05z"/>
	<circle style="fill:#4CAF50;" cx="27.29" cy="65.26" r="13.41"/>
	<path style="fill:#6FD86F;" d="M17.93,66.44c-1.14-0.36-1.45-4.36,1.22-7.57c3.98-4.79,9.71-4.67,10.32-2.12
		c0.85,3.57-3.67,2.16-7.11,5.04C20.22,63.59,19.74,67,17.93,66.44z"/>
	<circle style="fill:#FFCA28;" cx="64" cy="65.26" r="13.41"/>
	<path style="fill:#FFF59D;" d="M54.64,66.45c-1.14-0.36-1.45-4.36,1.22-7.57c3.98-4.79,9.71-4.67,10.32-2.12
		c0.85,3.57-3.67,2.16-7.11,5.04C56.92,63.6,56.45,67.01,54.64,66.45z"/>
	<circle style="fill:#F44336;" cx="100.71" cy="65.26" r="13.41"/>
	<path style="fill:#FF8155;" d="M91.35,66.45c-1.14-0.36-1.45-4.36,1.22-7.57c3.98-4.79,9.71-4.67,10.32-2.12
		c0.85,3.57-3.67,2.16-7.11,5.04C93.63,63.6,93.16,67.01,91.35,66.45z"/>
	<path style="fill:#757575;" d="M12.77,58.77c-0.47,0.92-1.89,0.88-1.76-0.52c0.32-3.41,2.26-6.09,3.85-7.73
		c3.16-3.32,7.8-5.21,12.43-5.2c4.63-0.02,9.27,1.88,12.44,5.19c1.59,1.64,3.85,5.3,3.86,7.85c0,1.11-1.26,1.41-1.72,0.51
		c-1.15-2.24-4.71-9.55-14.57-9.55S13.91,56.55,12.77,58.77z"/>
	<path style="fill:#757575;" d="M49.48,58.77c-0.47,0.92-1.89,0.88-1.76-0.52c0.32-3.41,2.26-6.09,3.85-7.73
		c3.16-3.32,7.8-5.21,12.43-5.2c4.63-0.02,9.27,1.88,12.44,5.19c1.59,1.64,3.85,5.3,3.86,7.85c0,1.11-1.26,1.41-1.72,0.51
		c-1.15-2.24-4.71-9.55-14.57-9.55S50.62,56.55,49.48,58.77z"/>
	<path style="fill:#757575;" d="M86.18,58.77c-0.47,0.92-1.89,0.88-1.76-0.52c0.32-3.41,2.26-6.09,3.85-7.73
		c3.16-3.32,7.8-5.21,12.43-5.2c4.63-0.02,9.27,1.88,12.44,5.19c1.59,1.64,3.85,5.3,3.86,7.85c0,1.11-1.26,1.41-1.72,0.51
		c-1.15-2.24-4.71-9.55-14.57-9.55S87.33,56.55,86.18,58.77z"/>
</g>
</svg>
